svgs/blockinger.svg

<svg viewBox="0 0 192 192" xml:space="preserve" style="fill-rule:evenodd;clip-rule:evenodd;stroke-linejoin:round;stroke-miterlimit:2" xmlns="http://www.w3.org/2000/svg"><path d="M1562.8 139.333h-18.67c-3.31 0-6 2.687-6 6V170c0 3.314 2.69 6 6 6h74c3.31 0 6-2.686 6-6v-24.667c0-3.313-2.69-6-6-6h-18.67v-18.666c0-3.314-2.68-6-6-6h-24.66c-3.32 0-6 2.686-6 6v18.666Zm0 12V164h-12.67v-12.667h12.67Zm12 0V164h12.66v-12.667h-12.66Zm24.66 0h12.67V164h-12.67v-12.667Zm-12-12h-12.66v-12.666h12.66v12.666Zm-87.46-68v49.334c0 3.313 2.69 6 6 6h24.67c3.31 0 6-2.687 6-6V102h18.67c3.31 0 6-2.686 6-6V46.667c0-3.314-2.69-6-6-6h-24.67c-3.31 0-6 2.686-6 6v18.666H1506c-3.31 0-6 2.687-6 6ZM1517.82 102h6.85v12.667H1512V102h5.82Zm86.85 0H1654c3.32 0 6-2.686 6-6V22c0-3.314-2.68-6-6-6h-24.66c-3.32 0-6 2.686-6 6v43.333h-18.67c-3.31 0-6 2.687-6 6V96c0 3.314 2.69 6 6 6Zm18.67-24.667V90h-12.67V77.333h12.67Zm17.81 0h6.85V90h-12.66V77.333h5.81Zm-98.66 0h6.85V90h-12.67V77.333h5.82Zm-17.82 0V90H1512V77.333h12.67Zm24.67-12h-12.67V52.667h12.67v12.666Zm91.81-12.666h-5.81v12.666H1648V52.667h-6.85Zm6.85-12h-12.66V28H1648v12.667Z" style="fill-rule:evenodd;clip-rule:evenodd;stroke-linejoin:round;stroke-miterlimit:2" transform="translate(-1484)"/></svg>

<?xml version="1.0" encoding="UTF-8" standalone="no"?>
<svg
   width="100%"
   height="100%"
   viewBox="0 0 192 192"
   version="1.1"
   xml:space="preserve"
   style="fill-rule:evenodd;clip-rule:evenodd;stroke-linejoin:round;stroke-miterlimit:2;"
   id="svg10"
   sodipodi:docname="blockinger.svg"
   inkscape:version="1.2.1 (9c6d41e410, 2022-07-14)"
   xmlns:inkscape="http://www.inkscape.org/namespaces/inkscape"
   xmlns:sodipodi="http://sodipodi.sourceforge.net/DTD/sodipodi-0.dtd"
   xmlns="http://www.w3.org/2000/svg"
   xmlns:svg="http://www.w3.org/2000/svg"><defs
   id="defs14" /><sodipodi:namedview
   id="namedview12"
   pagecolor="#ffffff"
   bordercolor="#000000"
   borderopacity="0.25"
   inkscape:showpageshadow="2"
   inkscape:pageopacity="0.0"
   inkscape:pagecheckerboard="0"
   inkscape:deskcolor="#d1d1d1"
   showgrid="false"
   inkscape:zoom="5.3489583"
   inkscape:cx="96.186952"
   inkscape:cy="95.906524"
   inkscape:window-width="2552"
   inkscape:window-height="1303"
   inkscape:window-x="4"
   inkscape:window-y="36"
   inkscape:window-maximized="0"
   inkscape:current-layer="svg10" />
    <path
   d="M1562.8,139.333L1544.13,139.333C1540.82,139.333 1538.13,142.02 1538.13,145.333L1538.13,170C1538.13,173.314 1540.82,176 1544.13,176L1618.13,176C1621.44,176 1624.13,173.314 1624.13,170L1624.13,145.333C1624.13,142.02 1621.44,139.333 1618.13,139.333L1599.46,139.333L1599.46,120.667C1599.46,117.353 1596.78,114.667 1593.46,114.667L1568.8,114.667C1565.48,114.667 1562.8,117.353 1562.8,120.667L1562.8,139.333ZM1562.8,151.333L1562.8,164L1550.13,164C1550.13,164 1550.13,151.333 1550.13,151.333L1562.8,151.333ZM1574.8,151.333L1574.8,164L1587.46,164L1587.46,151.333L1580.61,151.333L1574.8,151.333ZM1599.46,151.333L1612.13,151.333L1612.13,164L1599.46,164L1599.46,151.333ZM1587.46,139.333L1574.8,139.333C1574.8,139.333 1574.8,126.667 1574.8,126.667L1587.46,126.667L1587.46,139.333ZM1500,71.333L1500,120.667C1500,123.98 1502.69,126.667 1506,126.667L1530.67,126.667C1533.98,126.667 1536.67,123.98 1536.67,120.667L1536.67,102L1555.34,102C1558.65,102 1561.34,99.314 1561.34,96L1561.34,46.667C1561.34,43.353 1558.65,40.667 1555.34,40.667L1530.67,40.667C1527.36,40.667 1524.67,43.353 1524.67,46.667L1524.67,65.333L1506,65.333C1502.69,65.333 1500,68.02 1500,71.333ZM1517.82,102L1524.67,102L1524.67,114.667C1524.67,114.667 1512,114.667 1512,114.667L1512,102L1517.82,102ZM1604.67,102L1654,102C1657.32,102 1660,99.314 1660,96L1660,22C1660,18.686 1657.32,16 1654,16L1629.34,16C1626.02,16 1623.34,18.686 1623.34,22L1623.34,65.333L1604.67,65.333C1601.36,65.333 1598.67,68.02 1598.67,71.333L1598.67,96C1598.67,99.314 1601.36,102 1604.67,102ZM1623.34,77.333L1623.34,90C1623.34,90 1610.67,90 1610.67,90C1610.67,90 1610.67,77.333 1610.67,77.333L1623.34,77.333ZM1641.15,77.333L1648,77.333L1648,90L1635.34,90L1635.34,77.333L1641.15,77.333ZM1542.49,77.333L1549.34,77.333L1549.34,90L1536.67,90L1536.67,77.333L1542.49,77.333ZM1524.67,77.333L1524.67,90L1512,90C1512,90 1512,77.333 1512,77.333L1524.67,77.333ZM1549.34,65.333L1536.67,65.333C1536.67,65.333 1536.67,52.667 1536.67,52.667L1549.34,52.667L1549.34,65.333ZM1641.15,52.667L1635.34,52.667L1635.34,65.333L1648,65.333L1648,52.667L1641.15,52.667ZM1648,40.667L1635.34,40.667C1635.34,40.667 1635.34,28 1635.34,28L1648,28L1648,40.667Z"
   id="path4"
   style="fill-rule:evenodd;clip-rule:evenodd;stroke-linejoin:round;stroke-miterlimit:2"
   transform="translate(-1484)"
   inkscape:label="Blockinger-Form" />
</svg>
